images/tag_light.svg

<svg width="32" height="32" viewBox="0 0 32 32" fill="none" xmlns="http://www.w3.org/2000/svg">
<path d="M22.75 4H16.5L9.5 10L3.75 16V20L12 28.25H15L27.25 16.5L28 8.75L22.75 4Z" fill="#99A1FF" fill-opacity="0.25"/>
<path d="M21.0002 9.16639C22.0126 9.16645 22.8335 9.98727 22.8335 10.9997C22.8335 12.0122 22.0126 12.833 21.0002 12.8331C19.9877 12.8331 19.1668 12.0122 19.1668 10.9997C19.1669 9.98723 19.9877 9.16639 21.0002 9.16639Z" fill="#030FFC"/>
<path fill-rule="evenodd" clip-rule="evenodd" d="M20.7912 3.33306C21.5587 3.33306 22.1056 3.32671 22.631 3.45285C23.0732 3.55901 23.4959 3.73416 23.8836 3.97173C24.3443 4.25405 24.7264 4.64521 25.2691 5.18788L26.812 6.73085C27.3547 7.27353 27.7459 7.65559 28.0282 8.11626C28.2657 8.50397 28.4409 8.92672 28.547 9.36887C28.6732 9.8943 28.6668 10.4411 28.6668 11.2087V13.7907C28.6668 14.5583 28.6732 15.1052 28.547 15.6306C28.4409 16.0727 28.2657 16.4955 28.0282 16.8832C27.7459 17.3438 27.3547 17.726 26.812 18.2686L18.5659 26.5147C17.7857 27.2949 17.1587 27.9234 16.6102 28.389C16.0527 28.8623 15.5106 29.2259 14.8784 29.4314C13.8743 29.7576 12.7927 29.7576 11.7886 29.4314C11.1564 29.226 10.6143 28.8623 10.0568 28.389C9.50833 27.9234 8.88131 27.2949 8.10108 26.5147L5.4852 23.8988C4.70497 23.1186 4.0765 22.4916 3.61085 21.9431C3.13758 21.3856 2.77395 20.8435 2.56853 20.2113C2.24229 19.2072 2.24229 18.1256 2.56853 17.1215C2.77395 16.4893 3.1376 15.9472 3.61085 15.3897C4.07649 14.8412 4.705 14.2142 5.4852 13.434L13.7313 5.18788C14.2739 4.64523 14.6561 4.25404 15.1167 3.97173C15.5044 3.73417 15.9272 3.559 16.3693 3.45285C16.8947 3.32674 17.4416 3.33306 18.2092 3.33306H20.7912ZM18.2092 5.33306C17.3465 5.33306 17.0778 5.3395 16.8361 5.39751C16.5981 5.45467 16.3704 5.54892 16.1616 5.67681C15.9497 5.8067 15.7552 5.99207 15.1454 6.60194L6.89926 14.848C6.09566 15.6516 5.5361 16.2128 5.13559 16.6846C4.74274 17.1474 4.56156 17.4583 4.47022 17.7393C4.27448 18.3418 4.27448 18.991 4.47022 19.5935C4.56155 19.8746 4.74271 20.1854 5.13559 20.6482C5.53611 21.12 6.09562 21.6811 6.89926 22.4848L9.51515 25.1006C10.3188 25.9043 10.8799 26.4638 11.3517 26.8643C11.8145 27.2572 12.1253 27.4383 12.4064 27.5297C13.0089 27.7254 13.6581 27.7254 14.2606 27.5297C14.5416 27.4383 14.8525 27.2571 15.3153 26.8643C15.787 26.4638 16.3483 25.9042 17.1519 25.1006L25.398 16.8545C26.0078 16.2447 26.1932 16.0502 26.3231 15.8383C26.451 15.6295 26.5452 15.4018 26.6024 15.1638C26.6604 14.9221 26.6668 14.6534 26.6668 13.7907V11.2087C26.6668 10.346 26.6604 10.0774 26.6024 9.83566C26.5452 9.59762 26.451 9.36993 26.3231 9.16119C26.1932 8.94923 26.0079 8.75483 25.398 8.14491L23.855 6.60194C23.2451 5.99206 23.0507 5.8067 22.8387 5.67681C22.63 5.5489 22.4023 5.45468 22.1642 5.39751C21.9225 5.33948 21.6539 5.33306 20.7912 5.33306H18.2092Z" fill="#030FFC"/>
</svg>

<svg xmlns="http://www.w3.org/2000/svg" width="32" height="32" fill="none" viewBox="0 0 32 32"><path fill="#99a1ff" fill-opacity=".25" d="M22.75 4H16.5l-7 6-5.75 6v4L12 28.25h3L27.25 16.5 28 8.75z"/><path fill="#030ffc" d="M21 9.166a1.833 1.833 0 1 1 0 3.667 1.833 1.833 0 0 1 0-3.667"/><path fill="#030ffc" fill-rule="evenodd" d="M20.791 3.333c.768 0 1.315-.006 1.84.12.442.106.865.281 1.253.519.46.282.842.673 1.385 1.216l1.543 1.543c.543.543.934.925 1.216 1.385.238.388.413.81.519 1.253.126.525.12 1.072.12 1.84v2.582c0 .767.006 1.314-.12 1.84a4.3 4.3 0 0 1-.519 1.252c-.282.46-.673.843-1.216 1.386l-8.246 8.246c-.78.78-1.407 1.408-1.956 1.874-.557.473-1.1.837-1.732 1.042a5 5 0 0 1-3.09 0c-.632-.205-1.174-.569-1.731-1.042-.549-.466-1.176-1.094-1.956-1.874l-2.616-2.616c-.78-.78-1.408-1.407-1.874-1.956-.473-.557-.837-1.1-1.042-1.732a5 5 0 0 1 0-3.09c.205-.632.569-1.174 1.042-1.731.465-.549 1.094-1.176 1.874-1.956l8.246-8.246c.543-.543.925-.934 1.386-1.216.387-.238.81-.413 1.252-.52.526-.125 1.073-.119 1.84-.119zm-2.582 2c-.863 0-1.131.006-1.373.065a2.3 2.3 0 0 0-.674.279c-.212.13-.407.315-1.017.925L6.9 14.848c-.803.804-1.363 1.365-1.763 1.837-.393.462-.574.773-.666 1.054a3 3 0 0 0 0 1.854c.092.282.273.592.666 1.055.4.472.96 1.033 1.763 1.837L9.515 25.1c.804.803 1.365 1.363 1.837 1.763.463.393.773.574 1.054.666a3 3 0 0 0 1.855 0c.28-.092.591-.273 1.054-.666.472-.4 1.033-.96 1.837-1.763l8.246-8.246c.61-.61.795-.805.925-1.017.128-.208.222-.436.28-.674.057-.242.064-.51.064-1.373v-2.582c0-.863-.007-1.132-.065-1.373a2.3 2.3 0 0 0-.279-.675c-.13-.212-.315-.406-.925-1.016l-1.543-1.543c-.61-.61-.804-.795-1.016-.925a2.3 2.3 0 0 0-.675-.28c-.242-.058-.51-.064-1.373-.064z" clip-rule="evenodd"/></svg>
